X: 1712
T: Anvil, The
R: reel
M: 4/4
K: Aminor
|:E2 A2 E2 AE-|EGAB cBAG|F2 A2 F2 AF-|FGAB cBAB|
G2 B2 G2 BG-|GBAB c2 Ac-|cBAB c2 Ac|1 cBAB cBAG:|2 cBAB cAcd||
eaed cBAe-|eaed cBAE|F2 AB cBAE|F2 AB cBAB|
GABc dcBc|dcBc dcBd|cBAB c2 AB|cBAB c2 A2|
eaed cB A2|eaed cBAG|F2 AB cBAG|F2 AB cBAB|
GABc dcBc|dcBc dcBd|cBAB cBAB|cBAB cBcd||
|:edcB A2 [EA]2|edcB A2 [EA]2|F2 AB cBAE|F2 AB cBAB|
GABc dcBc|dcBc dcBd|cBAB cBAB|1 cBAB cBcd:|2 cBAB cBAD||

